X: 3
T: Homeward Bound
I: Homeward BoundR-121Dreel
M: C|
R: reel
%%musicspace 0pt
%%staffwidth 15cm
K: D
A,| "D"D2DE FEDF| A2AF    "Em"ABde| "D"f<aed "G"B2dB| "D"AFEF "A"DB,A,B,|
    "D"D2DE FEDF| A/A/AAF "Em"ABde| "D"f<aed "G"B2dB| "A"AFEF "D"D/D/DD :|
|:\
g| "D"fdfg afdf| "Em"e/e/eed "A"efg2| "D"fdfg afdf| "A"edef "D"d/d/ddg|
   "D"fdfg afdf| "Em"e/e/eed "A"efg2| "D"f/g/aed "G"B2dB|1 \
   "A"AFEF "D"D/D/DD :|2 "A"AFEF "D"DB,A,B, |]
%%text Roaring Jelly  R-121.  Repeat tune from first full measure.
%%text 08/29/98
